outputs/icons/content/add_box_sharp.svg

<svg xmlns="http://www.w3.org/2000/svg" width="1200" height="1200" fill="none"><g clip-path="url(#a)"><path fill="#000" d="M1050 150H150v900h900zM850 650H650v200H550V650H350V550h200V350h100v200h200z"/></g><defs><clipPath id="a"><path fill="#fff" d="M0 0h1200v1200H0z"/></clipPath></defs></svg>

<svg width="1200" height="1200" viewBox="0 0 1200 1200" fill="none" xmlns="http://www.w3.org/2000/svg"><g clip-path="url(#clip0_122_146)"><path d="M1050 150H150V1050H1050V150ZM850 650H650V850H550V650H350V550H550V350H650V550H850V650Z" fill="#1D1E23"/></g><defs><clipPath id="clip0_122_146"><path width="24" fill="white" d="M0 0H1200V1200H0V0z"/></clipPath></defs></svg>
